ramdev.svg

<svg width="512" height="512" xmlns="http://www.w3.org/2000/svg" xmlns:xlink="http://www.w3.org/1999/xlink" preserveAspectRatio="none">
 <defs>
  <g id="Mask_6_MASK_0_FILL">
   <path id="svg_1" d="m512,79.7q0,-33 -23.35,-56.4q-23.35,-23.3 -56.35,-23.3l-352.6,0q-33.05,0 -56.4,23.3q-23.3,23.4 -23.3,56.4l0,352.6q0,33.05 23.3,56.35q23.35,23.35 56.4,23.35l352.6,0q33,0 56.35,-23.35q23.35,-23.3 23.35,-56.35l0,-352.6z" fill="#FFFFFF"/>
  </g>
  <g id="Layer6_0_FILL">
   <path id="svg_2" d="m400.95,555.1l-6,0l19.85,52.85l4.7,0l19.75,-52.85l-6,0l-16.1,44.8l-16.2,-44.8m-43.9,2.55q-5.3,3.45 -8.25,9.6q-2.95,6.1 -2.95,13.7l0,2.1q0,7.35 3,13.35q3.05,5.9 8.5,9.2q5.45,3.35 12.2,3.35q12.25,0 18.7,-9.35l-3.7,-2.8q-2.9,3.8 -6.5,5.5q-3.6,1.7 -8.3,1.7q-7.8,0 -12.9,-5.95q-5.2,-6 -5.2,-15l0,-1.15l37.7,0l0,-3.25q0,-11.35 -5.6,-17.9q-5.7,-6.6 -15.3,-6.6q-6.15,0 -11.4,3.5m-5.2,19.3q1,-8.15 5.5,-13q4.5,-4.85 11.1,-4.85q6.65,0 10.75,4.8q4.1,4.8 4.35,12.4l0,0.65l-31.7,0m-231.9,-34.6q-6.4,-5.5 -17.75,-5.5l-23.1,0l0,71.1l6.05,0l0,-29.65l20.65,0l17.2,29.65l6.4,0l0,-0.65l-17.8,-30.25q6.75,-2 10.75,-7.25q4,-5.2 4,-12q0,-9.9 -6.4,-15.45m-34.8,-0.4l16.95,0q8.65,0 13.4,4.15q4.8,4.15 4.8,11.7q0,6.85 -4.6,11.15q-4.6,4.3 -12.15,4.3l-18.4,0l0,-31.3m219.65,-5.1l-19.85,0l0,71.1l19.4,0q9.1,0 16.15,-4q6.95,-4 10.8,-11.4q3.9,-7.35 3.9,-16.9l0,-6.5q0,-9.5 -3.9,-16.9q-3.9,-7.45 -10.8,-11.4q-6.95,-4 -15.7,-4m-13.85,5.1l13.95,0q10.95,0.05 17.65,7.4q6.65,7.4 6.65,19.65l0,6.3q0,12.7 -6.75,20.1q-6.8,7.45 -18.05,7.45l-13.45,0l0,-60.9m-117.4,35.3l-10.6,0q-11.5,0 -17.85,4.5q-6.45,4.45 -6.45,12.2q0,6.5 4.7,10.75q4.7,4.25 12.3,4.25q5.35,0 10.15,-2.15q4.7,-2.2 7.8,-6.2q0.25,4.85 1.1,7.35l6.25,0l0,-0.6q-1.6,-3.8 -1.6,-11.45l0,-25q-0.15,-7.9 -5.2,-12.3q-5.15,-4.45 -14,-4.45q-8.55,0 -14.4,4.65q-5.85,4.55 -5.85,10.85l5.85,0.05q0,-4.4 4,-7.5q4,-3.15 10.1,-3.15q6.7,0 10.25,3.3q3.45,3.2 3.45,8.9l0,6m0,4.5l0,11.6q-2.1,4.75 -6.7,7.55q-4.65,2.85 -10.5,2.85q-5.25,0 -8.55,-2.95q-3.3,-2.9 -3.3,-7.35q0,-5.4 4.9,-8.5q4.95,-3.1 13.7,-3.2l10.45,0m26.7,-26.65l-5.65,0l0,52.85l5.9,0l0,-36.25q1.9,-6.2 5.85,-9.3q3.95,-3.2 9.45,-3.2q6.55,0 9.75,3.4q3.1,3.3 3.15,10.1l0,35.25l5.85,0l0,-34.95q0.5,-5.7 4.85,-9.7q4.35,-4 10.65,-4.1q6.8,0 9.8,3.45q3,3.4 3.05,10.5l0,34.8l5.85,0l0,-35.25q-0.35,-18.55 -17.35,-18.55q-5.7,0 -10.45,2.7q-4.7,2.6 -7.55,7.55q-3.4,-10.25 -15.9,-10.25q-5.35,0 -9.75,2.4q-4.4,2.4 -7.3,7.15l-0.2,-8.6m311.75,-475.4q0,-33 -23.35,-56.4q-23.35,-23.3 -56.35,-23.3l-352.6,0q-33.05,0 -56.4,23.3q-23.3,23.4 -23.3,56.4l0,352.6q0,33.05 23.3,56.35q1.20645,1.20645 2.45,2.35q22.60762,21 53.95,21l352.6,0q31.29492,0 53.9,-21q1.24355,-1.14355 2.45,-2.35q23.35,-23.3 23.35,-56.35l0,-352.6z" fill="#FFFFFF"/>
  </g>
  <g id="Layer5_0_FILL">
   <path id="svg_3" d="m125,250l0,137l125,125l0,-125l0,-137l0,-125l-125,125m387,-170.3q0,-33 -23.35,-56.4q-23.35,-23.3 -56.35,-23.3l-45.3,0l0,125l0,125l0,137l0,125l125,-125l0,-307.3z" fill="#F8B800"/>
   <path id="svg_4" d="m125,125l-125,0l0,307.3q0,33.05 23.3,56.35q1.20645,1.20645 2.45,2.35q22.60762,21 53.95,21l45.25,0l0.05,-125l0,-137l0,-125z" fill="#111111"/>
   <path id="svg_5" d="m125,0l-125,125l125,0l125,0l137,0l-125,-125l-137,0z" fill="#333333"/>
   <path id="svg_6" d="m387,250l0,-125l-137,0l0,125l137,0m-137,137l0,125l137,0l0,-125l-137,0z" fill="#D69600"/>
  </g>
  <g id="Layer0_0_FILL">
   <path id="svg_7" d="m400.95,555.1l-6,0l19.85,52.85l4.7,0l19.75,-52.85l-6,0l-16.1,44.8l-16.2,-44.8m-43.9,2.55q-5.3,3.45 -8.25,9.6q-2.95,6.1 -2.95,13.7l0,2.1q0,7.35 3,13.35q3.05,5.9 8.5,9.2q5.45,3.35 12.2,3.35q12.25,0 18.7,-9.35l-3.7,-2.8q-2.9,3.8 -6.5,5.5q-3.6,1.7 -8.3,1.7q-7.8,0 -12.9,-5.95q-5.2,-6 -5.2,-15l0,-1.15l37.7,0l0,-3.25q0,-11.35 -5.6,-17.9q-5.7,-6.6 -15.3,-6.6q-6.15,0 -11.4,3.5m-5.2,19.3q1,-8.15 5.5,-13q4.5,-4.85 11.1,-4.85q6.65,0 10.75,4.8q4.1,4.8 4.35,12.4l0,0.65l-31.7,0m-231.9,-34.6q-6.4,-5.5 -17.75,-5.5l-23.1,0l0,71.1l6.05,0l0,-29.65l20.65,0l17.2,29.65l6.4,0l0,-0.65l-17.8,-30.25q6.75,-2 10.75,-7.25q4,-5.2 4,-12q0,-9.9 -6.4,-15.45m-34.8,-0.4l16.95,0q8.65,0 13.4,4.15q4.8,4.15 4.8,11.7q0,6.85 -4.6,11.15q-4.6,4.3 -12.15,4.3l-18.4,0l0,-31.3m235.35,-1.1q-6.95,-4 -15.7,-4l-19.85,0l0,71.1l19.4,0q9.1,0 16.15,-4q6.95,-4 10.8,-11.4q3.9,-7.35 3.9,-16.9l0,-6.5q0,-9.5 -3.9,-16.9q-3.9,-7.45 -10.8,-11.4m-29.55,1.1l13.95,0q10.95,0.05 17.65,7.4q6.65,7.4 6.65,19.65l0,6.3q0,12.7 -6.75,20.1q-6.8,7.45 -18.05,7.45l-13.45,0l0,-60.9m-90.5,21.75l-0.2,-8.6l-5.65,0l0,52.85l5.9,0l0,-36.25q1.9,-6.2 5.85,-9.3q3.95,-3.2 9.45,-3.2q6.55,0 9.75,3.4q3.1,3.3 3.15,10.1l0,35.25l5.85,0l0,-34.95q0.5,-5.7 4.85,-9.7q4.35,-4 10.65,-4.1q6.8,0 9.8,3.45q3,3.4 3.05,10.5l0,34.8l5.85,0l0,-35.25q-0.35,-18.55 -17.35,-18.55q-5.7,0 -10.45,2.7q-4.7,2.6 -7.55,7.55q-3.4,-10.25 -15.9,-10.25q-5.35,0 -9.75,2.4q-4.4,2.4 -7.3,7.15m-21.1,7.2q-0.15,-7.9 -5.2,-12.3q-5.15,-4.45 -14,-4.45q-8.55,0 -14.4,4.65q-5.85,4.55 -5.85,10.85l5.85,0.05q0,-4.4 4,-7.5q4,-3.15 10.1,-3.15q6.7,0 10.25,3.3q3.45,3.2 3.45,8.9l0,6l-10.6,0q-11.5,0 -17.85,4.5q-6.45,4.45 -6.45,12.2q0,6.5 4.7,10.75q4.7,4.25 12.3,4.25q5.35,0 10.15,-2.15q4.7,-2.2 7.8,-6.2q0.25,4.85 1.1,7.35l6.25,0l0,-0.6q-1.6,-3.8 -1.6,-11.45l0,-25m-16.25,10.85l10.45,0l0,11.6q-2.1,4.75 -6.7,7.55q-4.65,2.85 -10.5,2.85q-5.25,0 -8.55,-2.95q-3.3,-2.9 -3.3,-7.35q0,-5.4 4.9,-8.5q4.95,-3.1 13.7,-3.2z" fill="#FFFFFF"/>
  </g>
 </defs>
 <mask id="Mask_Mask_1">
  <g id="svg_8">
   <use x="2" y="2" id="svg_9" xlink:href="#Mask_6_MASK_0_FILL"/>
  </g>
 </mask>
 <g>
  <title>background</title>
  <rect fill="none" id="canvas_background" height="514" width="514" y="-1" x="-1"/>
 </g>
 <g>
  <title>Layer 1</title>
  <rect id="svg_18" height="512" width="512" y="0" x="0" stroke-width="0" stroke="#000" fill="#fff"/>
  <g stroke="null" id="svg_13" mask="url(#Mask_Mask_1)">
   <g stroke="null" id="svg_14">
    <use x="0" y="0" stroke="null" id="svg_15" xlink:href="#Layer5_0_FILL"/>
   </g>
  </g>
 </g>
</svg>

<svg xmlns="http://www.w3.org/2000/svg" version="1.1" xmlns:xlink="http://www.w3.org/1999/xlink" preserveAspectRatio="none" x="0px" y="0px" width="512px" height="512px" viewBox="0 0 512 512">
<defs>
<g id="Mask_6_MASK_0_FILL">
<path fill="#FFFFFF" stroke="none" d="
M 512 79.7
Q 512 46.7 488.65 23.3 465.3 0 432.3 0
L 79.7 0
Q 46.65 0 23.3 23.3 0 46.7 0 79.7
L 0 432.3
Q 0 465.35 23.3 488.65 46.65 512 79.7 512
L 432.3 512
Q 465.3 512 488.65 488.65 512 465.35 512 432.3
L 512 79.7 Z"/>
</g>

<g id="Layer6_0_FILL">
<path fill="#FFFFFF" stroke="none" d="
M 400.95 555.1
L 394.95 555.1 414.8 607.95 419.5 607.95 439.25 555.1 433.25 555.1 417.15 599.9 400.95 555.1
M 357.05 557.65
Q 351.75 561.1 348.8 567.25 345.85 573.35 345.85 580.95
L 345.85 583.05
Q 345.85 590.4 348.85 596.4 351.9 602.3 357.35 605.6 362.8 608.95 369.55 608.95 381.8 608.95 388.25 599.6
L 384.55 596.8
Q 381.65 600.6 378.05 602.3 374.45 604 369.75 604 361.95 604 356.85 598.05 351.65 592.05 351.65 583.05
L 351.65 581.9 389.35 581.9 389.35 578.65
Q 389.35 567.3 383.75 560.75 378.05 554.15 368.45 554.15 362.3 554.15 357.05 557.65
M 351.85 576.95
Q 352.85 568.8 357.35 563.95 361.85 559.1 368.45 559.1 375.1 559.1 379.2 563.9 383.3 568.7 383.55 576.3
L 383.55 576.95 351.85 576.95
M 119.95 542.35
Q 113.55 536.85 102.2 536.85
L 79.1 536.85 79.1 607.95 85.15 607.95 85.15 578.3 105.8 578.3 123 607.95 129.4 607.95 129.4 607.3 111.6 577.05
Q 118.35 575.05 122.35 569.8 126.35 564.6 126.35 557.8 126.35 547.9 119.95 542.35
M 85.15 541.95
L 102.1 541.95
Q 110.75 541.95 115.5 546.1 120.3 550.25 120.3 557.8 120.3 564.65 115.7 568.95 111.1 573.25 103.55 573.25
L 85.15 573.25 85.15 541.95
M 304.8 536.85
L 284.95 536.85 284.95 607.95 304.35 607.95
Q 313.45 607.95 320.5 603.95 327.45 599.95 331.3 592.55 335.2 585.2 335.2 575.65
L 335.2 569.15
Q 335.2 559.65 331.3 552.25 327.4 544.8 320.5 540.85 313.55 536.85 304.8 536.85
M 290.95 541.95
L 304.9 541.95
Q 315.85 542 322.55 549.35 329.2 556.75 329.2 569
L 329.2 575.3
Q 329.2 588 322.45 595.4 315.65 602.85 304.4 602.85
L 290.95 602.85 290.95 541.95
M 173.55 577.25
L 162.95 577.25
Q 151.45 577.25 145.1 581.75 138.65 586.2 138.65 593.95 138.65 600.45 143.35 604.7 148.05 608.95 155.65 608.95 161 608.95 165.8 606.8 170.5 604.6 173.6 600.6 173.85 605.45 174.7 607.95
L 180.95 607.95 180.95 607.35
Q 179.35 603.55 179.35 595.9
L 179.35 570.9
Q 179.2 563 174.15 558.6 169 554.15 160.15 554.15 151.6 554.15 145.75 558.8 139.9 563.35 139.9 569.65
L 145.75 569.7
Q 145.75 565.3 149.75 562.2 153.75 559.05 159.85 559.05 166.55 559.05 170.1 562.35 173.55 565.55 173.55 571.25
L 173.55 577.25
M 173.55 581.75
L 173.55 593.35
Q 171.45 598.1 166.85 600.9 162.2 603.75 156.35 603.75 151.1 603.75 147.8 600.8 144.5 597.9 144.5 593.45 144.5 588.05 149.4 584.95 154.35 581.85 163.1 581.75
L 173.55 581.75
M 200.25 555.1
L 194.6 555.1 194.6 607.95 200.5 607.95 200.5 571.7
Q 202.4 565.5 206.35 562.4 210.3 559.2 215.8 559.2 222.35 559.2 225.55 562.6 228.65 565.9 228.7 572.7
L 228.7 607.95 234.55 607.95 234.55 573
Q 235.05 567.3 239.4 563.3 243.75 559.3 250.05 559.2 256.85 559.2 259.85 562.65 262.85 566.05 262.9 573.15
L 262.9 607.95 268.75 607.95 268.75 572.7
Q 268.4 554.15 251.4 554.15 245.7 554.15 240.95 556.85 236.25 559.45 233.4 564.4 230 554.15 217.5 554.15 212.15 554.15 207.75 556.55 203.35 558.95 200.45 563.7
L 200.25 555.1
M 512 79.7
Q 512 46.7 488.65 23.3 465.3 0 432.3 0
L 79.7 0
Q 46.65 0 23.3 23.3 0 46.7 0 79.7
L 0 432.3
Q 0 465.35 23.3 488.65 24.5064453125 489.8564453125 25.75 491 48.3576171875 512 79.7 512
L 432.3 512
Q 463.594921875 512 486.2 491 487.4435546875 489.8564453125 488.65 488.65 512 465.35 512 432.3
L 512 79.7 Z"/>
</g>

<g id="Layer5_0_FILL">
<path fill="#F8B800" stroke="none" d="
M 125 250
L 125 387 250 512 250 387 250 250 250 125 125 250
M 512 79.7
Q 512 46.7 488.65 23.3 465.3 0 432.3 0
L 387 0 387 125 387 250 387 387 387 512 512 387 512 79.7 Z"/>

<path fill="#111111" stroke="none" d="
M 125 125
L 0 125 0 432.3
Q 0 465.35 23.3 488.65 24.5064453125 489.8564453125 25.75 491 48.3576171875 512 79.7 512
L 124.95 512 125 387 125 250 125 125 Z"/>

<path fill="#333333" stroke="none" d="
M 125 0
L 0 125 125 125 250 125 387 125 262 0 125 0 Z"/>

<path fill="#D69600" stroke="none" d="
M 387 250
L 387 125 250 125 250 250 387 250
M 250 387
L 250 512 387 512 387 387 250 387 Z"/>
</g>

<g id="Layer0_0_FILL">
<path fill="#FFFFFF" stroke="none" d="
M 400.95 555.1
L 394.95 555.1 414.8 607.95 419.5 607.95 439.25 555.1 433.25 555.1 417.15 599.9 400.95 555.1
M 357.05 557.65
Q 351.75 561.1 348.8 567.25 345.85 573.35 345.85 580.95
L 345.85 583.05
Q 345.85 590.4 348.85 596.4 351.9 602.3 357.35 605.6 362.8 608.95 369.55 608.95 381.8 608.95 388.25 599.6
L 384.55 596.8
Q 381.65 600.6 378.05 602.3 374.45 604 369.75 604 361.95 604 356.85 598.05 351.65 592.05 351.65 583.05
L 351.65 581.9 389.35 581.9 389.35 578.65
Q 389.35 567.3 383.75 560.75 378.05 554.15 368.45 554.15 362.3 554.15 357.05 557.65
M 351.85 576.95
Q 352.85 568.8 357.35 563.95 361.85 559.1 368.45 559.1 375.1 559.1 379.2 563.9 383.3 568.7 383.55 576.3
L 383.55 576.95 351.85 576.95
M 119.95 542.35
Q 113.55 536.85 102.2 536.85
L 79.1 536.85 79.1 607.95 85.15 607.95 85.15 578.3 105.8 578.3 123 607.95 129.4 607.95 129.4 607.3 111.6 577.05
Q 118.35 575.05 122.35 569.8 126.35 564.6 126.35 557.8 126.35 547.9 119.95 542.35
M 85.15 541.95
L 102.1 541.95
Q 110.75 541.95 115.5 546.1 120.3 550.25 120.3 557.8 120.3 564.65 115.7 568.95 111.1 573.25 103.55 573.25
L 85.15 573.25 85.15 541.95
M 320.5 540.85
Q 313.55 536.85 304.8 536.85
L 284.95 536.85 284.95 607.95 304.35 607.95
Q 313.45 607.95 320.5 603.95 327.45 599.95 331.3 592.55 335.2 585.2 335.2 575.65
L 335.2 569.15
Q 335.2 559.65 331.3 552.25 327.4 544.8 320.5 540.85
M 290.95 541.95
L 304.9 541.95
Q 315.85 542 322.55 549.35 329.2 556.75 329.2 569
L 329.2 575.3
Q 329.2 588 322.45 595.4 315.65 602.85 304.4 602.85
L 290.95 602.85 290.95 541.95
M 200.45 563.7
L 200.25 555.1 194.6 555.1 194.6 607.95 200.5 607.95 200.5 571.7
Q 202.4 565.5 206.35 562.4 210.3 559.2 215.8 559.2 222.35 559.2 225.55 562.6 228.65 565.9 228.7 572.7
L 228.7 607.95 234.55 607.95 234.55 573
Q 235.05 567.3 239.4 563.3 243.75 559.3 250.05 559.2 256.85 559.2 259.85 562.65 262.85 566.05 262.9 573.15
L 262.9 607.95 268.75 607.95 268.75 572.7
Q 268.4 554.15 251.4 554.15 245.7 554.15 240.95 556.85 236.25 559.45 233.4 564.4 230 554.15 217.5 554.15 212.15 554.15 207.75 556.55 203.35 558.95 200.45 563.7
M 179.35 570.9
Q 179.2 563 174.15 558.6 169 554.15 160.15 554.15 151.6 554.15 145.75 558.8 139.9 563.35 139.9 569.65
L 145.75 569.7
Q 145.75 565.3 149.75 562.2 153.75 559.05 159.85 559.05 166.55 559.05 170.1 562.35 173.55 565.55 173.55 571.25
L 173.55 577.25 162.95 577.25
Q 151.45 577.25 145.1 581.75 138.65 586.2 138.65 593.95 138.65 600.45 143.35 604.7 148.05 608.95 155.65 608.95 161 608.95 165.8 606.8 170.5 604.6 173.6 600.6 173.85 605.45 174.7 607.95
L 180.95 607.95 180.95 607.35
Q 179.35 603.55 179.35 595.9
L 179.35 570.9
M 163.1 581.75
L 173.55 581.75 173.55 593.35
Q 171.45 598.1 166.85 600.9 162.2 603.75 156.35 603.75 151.1 603.75 147.8 600.8 144.5 597.9 144.5 593.45 144.5 588.05 149.4 584.95 154.35 581.85 163.1 581.75 Z"/>
</g>
</defs>

<mask id="Mask_Mask_1">
<g transform="matrix( 1, 0, 0, 1, 0,0) ">
<use xlink:href="#Mask_6_MASK_0_FILL"/>
</g>
</mask>

<g mask="url(#Mask_Mask_1)">
<g transform="matrix( 1, 0, 0, 1, 0,0) ">
<use xlink:href="#Layer6_0_FILL"/>
</g>
</g>

<g mask="url(#Mask_Mask_1)">
<g transform="matrix( 1, 0, 0, 1, 0,0) ">
<use xlink:href="#Layer5_0_FILL"/>
</g>
</g>

<g transform="matrix( 1, 0, 0, 1, 0,0) ">
<use xlink:href="#Layer0_0_FILL"/>
</g>
</svg>
